src/images/svg/markets/zero-commission-new.svg

<svg width="49" height="48" viewBox="0 0 49 48" fill="none" xmlns="http://www.w3.org/2000/svg">
<path fill-rule="evenodd" clip-rule="evenodd" d="M28.2496 32.494C28.2496 30.1682 26.013 28.3468 23.1587 28.3468C21.4569 28.3468 20.2694 27.3779 20.2694 26.507C20.2694 25.6372 21.4569 24.6672 23.1587 24.6672C24.8606 24.6672 26.0471 25.6372 26.0471 26.507H28.2496C28.2496 24.4916 26.5663 22.8591 24.2595 22.4589V20.8182H22.0579V22.4589C19.7512 22.8591 18.0678 24.4916 18.0678 26.507C18.0678 28.8328 20.3035 30.6542 23.1587 30.6542C24.8606 30.6542 26.0471 31.6231 26.0471 32.494C26.0471 33.3639 24.8606 34.3328 23.1587 34.3328C21.4569 34.3328 20.2694 33.3639 20.2694 32.494H18.0678C18.0678 34.5094 19.7512 36.142 22.0579 36.5412V38.2727H24.2595V36.5412C26.5663 36.142 28.2496 34.5094 28.2496 32.494ZM42.7951 28.7781C41.4737 28.353 40.0376 28.1996 38.5475 28.3793C34.0497 28.9265 30.376 32.625 29.7305 37.2392C29.3774 39.7604 29.9247 42.1281 31.0646 44.0909H2.57523C1.49223 44.0909 0.613281 43.1862 0.613281 42.0716V17.0194C0.613281 15.9037 1.49223 15 2.57523 15H40.8332C41.9161 15 42.7951 15.9037 42.7951 17.0194V28.7781ZM42.021 37.5859H43.8025V37.3463C43.8025 36.1656 42.8414 35.167 41.4413 34.8613V33.8933H39.6598V34.8613C38.2597 35.167 37.2985 36.1656 37.2985 37.3463C37.2985 38.7944 38.7264 39.9272 40.55 39.9272C41.448 39.9272 42.021 40.4016 42.021 40.7265C42.021 41.0524 41.448 41.5248 40.55 41.5248C39.6531 41.5248 39.08 41.0524 39.08 40.7265V40.4869H37.2985V40.7265C37.2985 41.9072 38.2597 42.9058 39.6598 43.2106V44.2303H41.4413V43.2106C42.8414 42.9058 43.8025 41.9072 43.8025 40.7265C43.8025 39.2794 42.3747 38.1456 40.55 38.1456C39.6531 38.1456 39.08 37.6722 39.08 37.3463C39.08 37.0205 39.6531 36.5471 40.55 36.5471C41.448 36.5471 42.021 37.0205 42.021 37.3463V37.5859ZM40.6133 31C41.6559 31 42.6487 31.206 43.563 31.5702C46.5165 32.7471 48.6133 35.6308 48.6133 39.0005C48.6133 43.4109 45.0234 47 40.6133 47C38.1226 47 35.8955 45.8557 34.4274 44.0664C33.2946 42.6854 32.6133 40.9201 32.6133 39.0005C32.6133 34.5881 36.2012 31 40.6133 31Z" fill="#85ACAF"/>
<g style="mix-blend-mode:multiply">
<path fill-rule="evenodd" clip-rule="evenodd" d="M36.6133 20C35.1323 20 33.7493 19.588 32.5573 18.884L43.4973 7.944C44.2013 9.136 44.6133 10.519 44.6133 12C44.6133 16.411 41.0243 20 36.6133 20ZM36.6133 4C38.0943 4 39.4773 4.412 40.6693 5.116L29.7293 16.056C29.0253 14.864 28.6133 13.481 28.6133 12C28.6133 7.589 32.2023 4 36.6133 4ZM36.6133 0C29.9853 0 24.6133 5.373 24.6133 12C24.6133 18.627 29.9853 24 36.6133 24C43.2403 24 48.6133 18.627 48.6133 12C48.6133 5.373 43.2403 0 36.6133 0Z" fill="#FF444F"/>
</g>
</svg>

<svg width="49" height="48" fill="none" xmlns="http://www.w3.org/2000/svg"><path fill-rule="evenodd" clip-rule="evenodd" d="M28.25 32.494c0-2.326-2.237-4.147-5.091-4.147-1.702 0-2.89-.97-2.89-1.84 0-.87 1.188-1.84 2.89-1.84 1.702 0 2.888.97 2.888 1.84h2.203c0-2.015-1.684-3.648-3.99-4.048v-1.64h-2.202v1.64c-2.307.4-3.99 2.033-3.99 4.048 0 2.326 2.235 4.147 5.09 4.147 1.703 0 2.89.97 2.89 1.84 0 .87-1.187 1.839-2.89 1.839-1.701 0-2.889-.97-2.889-1.839h-2.201c0 2.015 1.683 3.648 3.99 4.047v1.732h2.201V36.54c2.307-.399 3.99-2.032 3.99-4.047Zm14.545-3.716a9.93 9.93 0 0 0-4.248-.399c-4.497.547-8.171 4.246-8.816 8.86a10.618 10.618 0 0 0 1.334 6.852H2.575c-1.083 0-1.962-.905-1.962-2.02V17.02c0-1.115.88-2.019 1.962-2.019h38.258c1.083 0 1.962.904 1.962 2.02v11.758Zm-.774 8.808h1.782v-.24c0-1.18-.962-2.179-2.362-2.485v-.968H39.66v.968c-1.4.306-2.361 1.305-2.361 2.485 0 1.448 1.427 2.581 3.251 2.581.898 0 1.471.475 1.471.8 0 .325-.573.798-1.471.798-.897 0-1.47-.473-1.47-.798v-.24h-1.782v.24c0 1.18.962 2.179 2.362 2.484v1.02h1.781v-1.02c1.4-.305 2.361-1.304 2.361-2.484 0-1.448-1.427-2.581-3.252-2.581-.897 0-1.47-.474-1.47-.8 0-.325.573-.799 1.47-.799.898 0 1.471.474 1.471.8v.239ZM40.613 31c1.043 0 2.036.206 2.95.57 2.953 1.177 5.05 4.06 5.05 7.43 0 4.41-3.59 8-8 8a7.986 7.986 0 0 1-6.186-2.934A7.965 7.965 0 0 1 32.613 39c0-4.412 3.588-8 8-8Z" fill="#85ACAF"/><path fill-rule="evenodd" clip-rule="evenodd" d="M36.613 20a7.948 7.948 0 0 1-4.056-1.116l10.94-10.94A7.948 7.948 0 0 1 44.613 12c0 4.411-3.589 8-8 8Zm0-16c1.481 0 2.864.412 4.056 1.116l-10.94 10.94A7.948 7.948 0 0 1 28.613 12c0-4.411 3.59-8 8-8Zm0-4c-6.628 0-12 5.373-12 12s5.372 12 12 12c6.627 0 12-5.373 12-12s-5.373-12-12-12Z" fill="#FF444F" style="mix-blend-mode:multiply"/></svg>
